X:347
T: "Der gespenstische Reiter"
N: Z1027
O: Europa, Mitteleuropa, Deutschland
R: Romanze, Ballade, Tod, Lenora - Sage
M: 6/8
L: 1/16
K: F
C2 | F3G_A2A2G2F2 | G4E2C4
_A2 | G2_E2C2F4D2 | C6
F6 | F2G2_A2c2B2c2 | G6
_A6 | F2G2_A2G2F2E2 | F4z6

